X: 58
T: Missa De Sancto Job / Kyrie
N: Derived from Rue1013a-Missa_De_Sancto_Job-Kyrie.krn
C: Pierre de la Rue
%%abc-version 2.0
%%abcx-abcm2ps-target-version 5.9.1 (29 Sep 2008)
%%abc-creator hum2abc beta
%%abcx-conversion-date 2019/02/17 08:01:11
%%abc-edited-by Jesse Rodin
%%abc-edited-by Megan K. Eagen 2013/01/20
%%abcx-initial-encoding-date 2013/01/20/
%%humdrum-veritas 218564870
%%humdrum-veritas-data 3975786004
%%linebreak <none>
%%barnumbers 0
L: 1/4
M: 3/1
Q: 1/2=120
%%staves [1 2 3 4]
V: 1 clef=treble
V: 2 clef=treble-8
V: 3 clef=treble-8
V: 4 clef=bass
K: F
[V:1] G8B3A | 
[V:2] G8G4 | 
[V:3] z12 | 
[V:4] z12 | 
[V:1] G2F4F2GABG | 
[V:2] B8G4 | 
[V:3] z12 | 
[V:4] z12 | 
[V:1] A3BcAB3AG2 | 
[V:2] F4F2G3ABG | 
[V:3] z12 | 
[V:4] z12 | 
[V:1] F3GAFG3FD2 | 
[V:2] A4A2B3cdB | 
[V:3] z12 | 
[V:4] z12 | 
[V:1] E3FGEF3EC2 | 
[V:2] c3BG2A3BcA | 
[V:3] z12 | 
[V:4] z12 | 
[V:1] DEFDE2G4^F2 | 
[V:2] B2F2GABGA4 | 
[V:3] z12 | 
[V:4] z12 | 
[V:1] G8z4 | 
[V:2] G4z4z4 | 
[V:3] G8G4 | 
[V:4] G,6B,3A,G,F, | 
[V:1] G8G4 | 
[V:2] G4G2B3cd_e | 
[V:3] B8G4 | 
[V:4] _E,8E,4 | 
[V:1] A4B2A4GF | 
[V:2] f6_edc2d2 | 
[V:3] F8A2B2 | 
[V:4] D,8z4 | 
[V:1] E2c3BG3AB2 | 
[V:2] G8G4 | 
[V:3] c8B3G | 
[V:4] C,6E,3D,C,B,, | 
[V:1] c2d4c4A2 | 
[V:2] z2G4G2A2c2 | 
[V:3] A2B4G4^F2 | 
[V:4] A,,2G,,2B,,2C,2A,,4 | 
[V:1] B6G4FE | 
[V:2] BGg3f_ed_e2d2 | 
[V:3] G12 | 
[V:4] G,,8z4 | 
[V:1] D8z4 | 
[V:2] B6d3cBA | 
[V:3] z4z4B4 | 
[V:4] G,6B,3A,G,F, | 
[V:1] G4F2A4B2 | 
[V:2] G4A4F4 | 
[V:3] c4d8 | 
[V:4] _E,4D,8 | 
[V:1] c3BG2c2B2G2 | 
[V:2] G12 | 
[V:3] _e6_e2d4 | 
[V:4] C,8G,,4 | 
[V:1] A2G2A2GFEDE2 | 
[V:2] z4z4c4 | 
[V:3] c2_edcBB4A2 | 
[V:4] z2C,2A,,2B,,2C,4 | 
[V:1] D2BAGFB4A2 | 
[V:2] d4d2f4f2 | 
[V:3] B3FB2d2c4 | 
[V:4] B,,8F,4 | 
[V:1] B2d3cBAG4 | 
[V:2] d4d2_e4_e2 | 
[V:3] B8c4 | 
[V:4] G,2B,3A,G,F,_E,4 | 
[V:1] F2B3AG4^F2 | 
[V:2] f4f2d4d2 | 
[V:3] d3cB2AGA4 | 
[V:4] D,2B,,2_E,4D,4 | 
[V:1] G12 ||  
[V:2] B3cd8 ||  
[V:3] G12 ||  
[V:4] G,,12 ||  
[V:1]  [K:F] [K:clef=treble][M:2/1]z8 | 
[V:2]  [K:F] [K:clef=treble-8][M:2/1]d8 | 
[V:3]  [K:F] [K:clef=treble-8][M:2/1]z8 | 
[V:4]  [K:F] [K:clef=bass][M:2/1]z8 | 
[V:1] z8 | 
[V:2] c4d4- | 
[V:3] z8 | 
[V:4] z8 | 
[V:1] A8 | 
[V:2] d4f4 | 
[V:3] z8 | 
[V:4] z8 | 
[V:1] G4A4- | 
[V:2] e4c2d2- | 
[V:3] z8 | 
[V:4] z8 | 
[V:1] A4c4 | 
[V:2] d2cBA4 | 
[V:3] z8 | 
[V:4] z8 | 
[V:1] B4G2A2- | 
[V:2] G2B2c2A2- | 
[V:3] z8 | 
[V:4] z8 | 
[V:1] A2GFE4 | 
[V:2] A2d4^c2 | 
[V:3] z8 | 
[V:4] z8 | 
[V:1] D2B2c2A2- | 
[V:2] d4e2f2- | 
[V:3] z8 | 
[V:4] z8 | 
[V:1] A2d3cc2 | 
[V:2] f2ede4 | 
[V:3] z8 | 
[V:4] z8 | 
[V:1] d2B4AG | 
[V:2] d8- | 
[V:3] z8 | 
[V:4] G,8 | 
[V:1] A4G4 | 
[V:2] d8 | 
[V:3] z8 | 
[V:4] F,4G,4- | 
[V:1] z8 | 
[V:2] z8 | 
[V:3] d8 | 
[V:4] G,4B,4 | 
[V:1] z8 | 
[V:2] z8 | 
[V:3] c4d4- | 
[V:4] A,4F,2G,2- | 
[V:1] z8 | 
[V:2] z8 | 
[V:3] d4f4 | 
[V:4] G,2F,E,D,4 | 
[V:1] z8 | 
[V:2] z8 | 
[V:3] e4c2d2- | 
[V:4] C,2E,2F,2D,2- | 
[V:1] z8 | 
[V:2] z8 | 
[V:3] d2cBA4 | 
[V:4] D,2G,4^F,2 | 
[V:1] z8 | 
[V:2] z8 | 
[V:3] G2B2c2A2- | 
[V:4] G,4E,2F,2- | 
[V:1] z8 | 
[V:2] z8 | 
[V:3] A2d4^c2 | 
[V:4] F,2E,D,E,4 | 
[V:1] A4A4- | 
[V:2] f4f4- | 
[V:3] d8- | 
[V:4] D,8 | 
[V:1] A2F2F4- | 
[V:2] f2d2d4- | 
[V:3] d8- | 
[V:4] D,6B,,2 | 
[V:1] F4B4- | 
[V:2] d2B4G2 | 
[V:3] d8 | 
[V:4] B,,8 | 
[V:1] B2G2G4- | 
[V:2] G8 | 
[V:3] _e8- | 
[V:4] _E,6C,2 | 
[V:1] G4c4- | 
[V:2] c6BA | 
[V:3] e8- | 
[V:4] C,8- | 
[V:1] c2BAG4 | 
[V:2] G4c4 | 
[V:3] e8 | 
[V:4] C,8 | 
[V:1] F8- | 
[V:2] A4B4 | 
[V:3] d8 | 
[V:4] D,8 | 
[V:1] F8 | 
[V:2] A8- | 
[V:3] c8 | 
[V:4] F,6E,D, | 
[V:1] E4F4 | 
[V:2] A8 | 
[V:3] c6BA | 
[V:4] C,4D,4 | 
[V:1] G4F2E2 | 
[V:2] z8 | 
[V:3] G4A4 | 
[V:4] _E,4D,2C,2 | 
[V:1] D8 | 
[V:2] z4d4 | 
[V:3] B4A2G2 | 
[V:4] B,,8- | 
[V:1] z8 | 
[V:2] f4e2d2 | 
[V:3] F4G4 | 
[V:4] B,,8 | 
[V:1] z4A4 | 
[V:2] c8- | 
[V:3] A4G2F2 | 
[V:4] A,,8- | 
[V:1] c6B2 | 
[V:2] c4A4 | 
[V:3] E8 | 
[V:4] A,,8 | 
[V:1] A2GFE2D2 | 
[V:2] ABcde2f2- | 
[V:3] A8- | 
[V:4] z8 | 
[V:1] F4E4 | 
[V:2] fed4^c2 | 
[V:3] A8 | 
[V:4] z4A,,4 | 
[V:1] D8 | 
[V:2] d4f4- | 
[V:3] F6G2 | 
[V:4] B,,4D,4- | 
[V:1] z8 | 
[V:2] f2e2d2cB | 
[V:3] A4B4 | 
[V:4] D,2C,2B,,2A,,G,, | 
[V:1] z4A4 | 
[V:2] cBAGA4 | 
[V:3] A2G4^F2 | 
[V:4] F,,2G,,2D,4 | 
[V:1] B4d4- | 
[V:2] G4B4- | 
[V:3] G8- | 
[V:4] G,,8 | 
[V:1] d2c2B2AG | 
[V:2] B2A2G2FE | 
[V:3] G8 | 
[V:4] G,,6A,,2 | 
[V:1] F2G2A4 | 
[V:2] D4E4 | 
[V:3] z4A4 | 
[V:4] B,,4C,4 | 
[V:1] D4F4- | 
[V:2] F4z2B2- | 
[V:3] B4d4- | 
[V:4] B,,8- | 
[V:1] F2EDF2G2 | 
[V:2] B2c2d2e2 | 
[V:3] d2c2B2AG | 
[V:4] B,,8 | 
[V:1] A2B2c4 | 
[V:2] d2g4^f2 | 
[V:3] F2G2A4 | 
[V:4] z8 | 
[V:1] B6A2 | 
[V:2] g6f2 | 
[V:3] G8- | 
[V:4] z4G,,4 | 
[V:1] G2F2E4 | 
[V:2] e2d2c4 | 
[V:3] G4A4 | 
[V:4] C,8 | 
[V:1] D8- | 
[V:2] F4B4- | 
[V:3] B4F4 | 
[V:4] B,,8- | 
[V:1] D8- | 
[V:2] B2A2G4 | 
[V:3] B8- | 
[V:4] B,,8- | 
[V:1] D8 ||  
[V:2] F8 ||  
[V:3] B8 ||  
[V:4] B,,8 ||  
[V:1]  [K:F] [K:clef=treble][M:3/1]G8F4 | 
[V:2]  [K:F] [K:clef=treble-8][M:3/1]z12 | 
[V:3]  [K:F] [K:clef=treble-8][M:3/1]z12 | 
[V:4]  [K:F] [K:clef=bass][M:3/1]z12 | 
[V:1] D2F3GABc2A2- | 
[V:2] d8c4 | 
[V:3] z12 | 
[V:4] z12 | 
[V:1] A2GFGFEDC2DE | 
[V:2] A2c3defgef2- | 
[V:3] z12 | 
[V:4] z12 | 
[V:1] FGA3DG4^F2 | 
[V:2] fedcd2cBA4 | 
[V:3] z12 | 
[V:4] z12 | 
[V:1] G8z4 | 
[V:2] G2B3cdef2c2 | 
[V:3] G8F4 | 
[V:4] z12 | 
[V:1] z12 | 
[V:2] f6ede4- | 
[V:3] D2F3GABc3B | 
[V:4] D,8C,4 | 
[V:1] z4z4A4 | 
[V:2] e4z4c4 | 
[V:3] cBAGA2G4^F2 | 
[V:4] A,,2C,3B,,A,,G,,A,,4 | 
[V:1] B6A6 | 
[V:2] B3cd2d3cA2 | 
[V:3] G4z4z4 | 
[V:4] G,,2G,4F,2D,2F,2 | 
[V:1] G6F6 | 
[V:2] c3BG2B2A2d2- | 
[V:3] z4z4A4 | 
[V:4] E,2C,2E,2D,C,D,4 | 
[V:1] G2B3AFGA4 | 
[V:2] d2B2d3ef4 | 
[V:3] B6A6 | 
[V:4] G,,4z2D,3E,F,2 | 
[V:1] B2G4d3cA2 | 
[V:2] B8A4 | 
[V:3] G6F6 | 
[V:4] G,2_E,3D,B,,C,D,4 | 
[V:1] B2G2BAGFE4 | 
[V:2] z2d4B2c4 | 
[V:3] G4z2F2G2A2 | 
[V:4] G,,4z2D,2C,B,,C,2 | 
[V:1] D2F2G2B4A2 | 
[V:2] z2Bcd2e2f4 | 
[V:3] B2d4B2c4 | 
[V:4] B,,2B,3A,G,2F,4 | 
[V:1] B4z2B2c4 | 
[V:2] d3Bc2d2_e4 | 
[V:3] B2FGA2B4A2 | 
[V:4] G,2D,2F,2E,D,C,4 | 
[V:1] d8c2A2 | 
[V:2] d6cBA2F2 | 
[V:3] B4z2B2c4- | 
[V:4] B,,8F,4 | 
[V:1] c2B3AGFE4 | 
[V:2] A2G2B3AG2c2- | 
[V:3] c2d6c2A2 | 
[V:4] z4B,,4C,4 | 
[V:1] E2D2F3ECDEF | 
[V:2] c2d4cBA4 | 
[V:3] c2B3AFGABc2- | 
[V:4] A,,2B,,3C,D,E,F,3E, | 
[V:1] G2E2F4c3B | 
[V:2] G4z2d2e4- | 
[V:3] c2c4B2A2G2 | 
[V:4] C,2E,2D,4C,3D, | 
[V:1] AGFEA2G4^F2 | 
[V:2] e2dcd8- | 
[V:3] z2cBAGB2A4 | 
[V:4] E,2F,3E,G,2D,4 | 
[V:1] G12 |]  
[V:2] d12 |]  
[V:3] G12 |]  
[V:4] G,,12 |]  



